X: 40107
T: Tickle Test
R: jig
M: 6/8
K: Bminor
|:FBB BAB|Fcc cBc|B3 ABA|FGF dcA|
BBB BAB|Fcc cBc|ABA cde|fed cBA:|
|:dBB dBB|cAA cAA|GGG EGB|BAe edc|
dBB FBB|cAA EAA|FAB Ace|1 dcA Bzc:|2 dcA B A||

